X: 27259
T: Miss Stewart
R: strathspey
M: 4/4
K: Gmajor
G2 GE DB,G,c|BGAG E<AAB|GAGE DB,G,g|dBAc BG G2:|
G2 g2 dgbg|agbg eaab|de g2 gbge|dBAc BGGD|
GB g2 dgbg|agbg eaab|de g2 gbge|dBAc BGGD||

